vendor/shopware/storefront/Resources/app/storefront/dist/assets/icon/default/emoji.svg

<svg xmlns="http://www.w3.org/2000/svg" width="24" height="24" viewBox="0 0 24 24">
  <path fill="#758CA3" fill-rule="evenodd" d="M12,24 C5.372583,24 0,18.627417 0,12 C0,5.372583 5.372583,0 12,0 C18.627417,0 24,5.372583 24,12 C24,18.627417 18.627417,24 12,24 Z M12,22 C17.5228475,22 22,17.5228475 22,12 C22,6.4771525 17.5228475,2 12,2 C6.4771525,2 2,6.4771525 2,12 C2,17.5228475 6.4771525,22 12,22 Z M6.0513167,15.3162278 C5.87666893,14.7922844 6.15982892,14.2259645 6.68377223,14.0513167 C7.20771555,13.8766689 7.77403553,14.1598289 7.9486833,14.6837722 C8.02839089,14.922895 8.26749378,15.3532802 8.70710678,15.7928932 C9.46007719,16.5458636 10.5197287,17 12,17 C13.4802713,17 14.5399228,16.5458636 15.2928932,15.7928932 C15.7325062,15.3532802 15.9716091,14.922895 16.0513167,14.6837722 C16.2259645,14.1598289 16.7922844,13.8766689 17.3162278,14.0513167 C17.8401711,14.2259645 18.1233311,14.7922844 17.9486833,15.3162278 C17.7783909,15.827105 17.3924938,16.5217198 16.7071068,17.2071068 C15.5850772,18.3291364 14.0197287,19 12,19 C9.98027128,19 8.41492281,18.3291364 7.29289322,17.2071068 C6.60750622,16.5217198 6.22160911,15.827105 6.0513167,15.3162278 Z M7.5547002,9.83205029 C7.09517151,10.1384028 6.47430216,10.0142289 6.16794971,9.5547002 C5.86159725,9.09517151 5.98577112,8.47430216 6.4452998,8.16794971 L6.83589941,7.90754997 C7.84359765,7.23575114 9.15640235,7.23575114 10.1641006,7.90754997 L10.5547002,8.16794971 C11.0142289,8.47430216 11.1384028,9.09517151 10.8320503,9.5547002 C10.5256978,10.0142289 9.90482849,10.1384028 9.4452998,9.83205029 L9.0547002,9.57165056 C8.71880078,9.34771762 8.28119922,9.34771762 7.9452998,9.57165056 L7.5547002,9.83205029 Z M14.5547002,9.83205029 C14.0951715,10.1384028 13.4743022,10.0142289 13.1679497,9.5547002 C12.8615972,9.09517151 12.9857711,8.47430216 13.4452998,8.16794971 L13.8358994,7.90754997 C14.8435976,7.23575114 16.1564024,7.23575114 17.1641006,7.90754997 L17.5547002,8.16794971 C18.0142289,8.47430216 18.1384028,9.09517151 17.8320503,9.5547002 C17.5256978,10.0142289 16.9048285,10.1384028 16.4452998,9.83205029 L16.0547002,9.57165056 C15.7188008,9.34771762 15.2811992,9.34771762 14.9452998,9.57165056 L14.5547002,9.83205029 Z"/>
</svg>

<svg xmlns="http://www.w3.org/2000/svg" width="24" height="24" viewBox="0 0 24 24"><path fill="#758CA3" fill-rule="evenodd" d="M12 24C5.3726 24 0 18.6274 0 12S5.3726 0 12 0s12 5.3726 12 12-5.3726 12-12 12zm0-2c5.5228 0 10-4.4772 10-10S17.5228 2 12 2 2 6.4772 2 12s4.4772 10 10 10zm-5.9487-6.6838c-.1746-.524.1085-1.0902.6325-1.2649.524-.1746 1.0902.1085 1.2649.6325.0797.2391.3188.6695.7584 1.109C9.4601 16.5459 10.5197 17 12 17s2.54-.4541 3.2929-1.2071c.4396-.4396.6787-.87.7584-1.1091.1747-.524.741-.8071 1.265-.6325.5239.1747.807.741.6324 1.265-.1703.5108-.5562 1.2054-1.2416 1.8908C15.5851 18.3291 14.0197 19 12 19s-3.585-.6709-4.7071-1.7929c-.6854-.6854-1.0713-1.38-1.2416-1.8909zm1.5034-5.4841c-.4595.3063-1.0804.1821-1.3868-.2774-.3063-.4595-.1821-1.0804.2774-1.3868l.3906-.2604a3 3 0 0 1 3.3282 0l.3906.2604c.4595.3064.5837.9273.2774 1.3868-.3064.4595-.9273.5837-1.3868.2774l-.3906-.2604a1 1 0 0 0-1.1094 0l-.3906.2604zm7 0c-.4595.3063-1.0804.1821-1.3868-.2774-.3063-.4595-.1821-1.0804.2774-1.3868l.3906-.2604a3 3 0 0 1 3.3282 0l.3906.2604c.4595.3064.5837.9273.2774 1.3868-.3064.4595-.9273.5837-1.3868.2774l-.3906-.2604a1 1 0 0 0-1.1094 0l-.3906.2604z"/></svg>
